shader_type canvas_item;

void vertex() {
	// Called for every vertex the material is visible on.
}

void fragment() {
	vec2 uv = UV - 0.5;
	float dist = dot(uv,uv);
	COLOR = vec4(cos(uv.x + TIME), 1.0, 1.0, 1.0);
}

//void light() {
//	// Called for every pixel for every light affecting the CanvasItem.
//	// Uncomment to replace the default light processing function with this one.
//}
